dist/img/svg/tab_3.svg

<svg width="24" height="24" viewBox="0 0 24 24" fill="none" xmlns="http://www.w3.org/2000/svg">
<path d="M9 22H15C20 22 22 20 22 15V9C22 4 20 2 15 2H9C4 2 2 4 2 9V15C2 20 4 22 9 22Z" stroke="currentColor" stroke-width="1.5" stroke-linecap="round" stroke-linejoin="round"/>
<path d="M18 7.75V14.5C18 13.4 17.1 12.5 16 12.5H8C6.9 12.5 6 13.4 6 14.5V7.75C6 6.65 6.9 5.75 8 5.75H16C17.1 5.75 18 6.65 18 7.75Z" stroke="currentColor" stroke-width="1.5" stroke-linecap="round" stroke-linejoin="round"/>
<path d="M19 15.75H18" stroke="currentColor" stroke-width="1.5" stroke-linecap="round" stroke-linejoin="round"/>
<path d="M6 15.75H5" stroke="currentColor" stroke-width="1.5" stroke-linecap="round" stroke-linejoin="round"/>
<path d="M18 14V11C18 9.9 17.1 9 16 9H8C6.9 9 6 9.9 6 11V14" stroke="currentColor" stroke-width="1.5" stroke-linecap="round" stroke-linejoin="round"/>
<path d="M18 14.5V15.75H14.5C14.5 17.13 13.38 18.25 12 18.25C10.62 18.25 9.5 17.13 9.5 15.75H6V14.5C6 13.4 6.9 12.5 8 12.5H16C17.1 12.5 18 13.4 18 14.5Z" stroke="currentColor" stroke-width="1.5" stroke-linecap="round" stroke-linejoin="round"/>
</svg>

<svg width="24" height="24" viewBox="0 0 24 24" fill="none" xmlns="http://www.w3.org/2000/svg"><path d="M9 22h6c5 0 7-2 7-7V9c0-5-2-7-7-7H9C4 2 2 4 2 9v6c0 5 2 7 7 7z" stroke="currentColor" stroke-width="1.5" stroke-linecap="round" stroke-linejoin="round"/><path d="M18 7.75v6.75c0-1.1-.9-2-2-2H8c-1.1 0-2 .9-2 2V7.75c0-1.1.9-2 2-2h8c1.1 0 2 .9 2 2zm1 8h-1m-12 0H5" stroke="currentColor" stroke-width="1.5" stroke-linecap="round" stroke-linejoin="round"/><path d="M18 14v-3c0-1.1-.9-2-2-2H8c-1.1 0-2 .9-2 2v3" stroke="currentColor" stroke-width="1.5" stroke-linecap="round" stroke-linejoin="round"/><path d="M18 14.5v1.25h-3.5a2.5 2.5 0 01-5 0H6V14.5c0-1.1.9-2 2-2h8c1.1 0 2 .9 2 2z" stroke="currentColor" stroke-width="1.5" stroke-linecap="round" stroke-linejoin="round"/></svg>
